!!!OTL: Tianshi haochang kou nankai
!!!ARE: Asia, China,ÿZhejiang, Wenzhou
!! III, 641
!!!SCT: C1628
!!!YEM: Copyright 1995, estate of Helmut Schaffrath.
**kern
*ICvox
*Ivox
!! Mixed meters:  2/4; 3/4
*M2/4
*k[f#c#]
*D:
{4b
4dd
=1
*M3/4
8ee
8ff#
4ee
4ee
=2
4ff#
4ee
4b
=3
*M2/4
4aa
4ee}
=4
*M3/4
{16ee
16ee
16ee
16ee
16r
16dd
16cc#
16dd
4b}
=5
*M2/4
{4b
4dd
=6
*M3/4
8ee
8ff#
4ee
[4ee
=7
*M2/4
4ee]
4aa}
=8
*M3/4
{16ee
16ee
16ee
16ee
16r
16dd
16cc#
16dd
4b
=9
*M2/4
16cc#
8.dd
16b
16b
16b
16b
=10
8b
4.a}
=11
{4b
4dd
=12
4ee
4ee
=13
4ff#
4ee
=14
4ff#
4ee
=15
4aa
4ee}
=16
*M3/4
{16ee
16ee
16ee
16ee
16r
16dd
16cc#
16dd
4b}
=17
*M2/4
{4b
4dd
=18
*M3/4
8ee
8ff#
4ee
[4ee
=19
*M2/4
4ee]
4aa}
=20
*M3/4
{16ee
16ee
16ee
16ee
16r
16dd
16cc#
16dd
4b
=21
*M2/4
16cc#
8.dd
16b
16b
16b
16b
=22
8b
4.a}
==
!!!AGN: Shange, Tiange, Tianshi
!!!AMT: irregular
!!!AIN: vox
!!!EED: Helmut Schaffrath
!!!EEV: 1.0
*-
!!!ONB: Tied note syntax fixed by Craig Sapp, 2004/05/03/
